src/components/00-materials/images-raw/Weather Warning.svg

<svg width="96" height="96" viewBox="0 0 96 96" fill="none" xmlns="http://www.w3.org/2000/svg">
<path d="M21.59 58.2802C18.6132 58.1922 15.7877 56.9478 13.7132 54.8111C11.6387 52.6743 10.4783 49.8134 10.4783 46.8352C10.4783 43.8571 11.6387 40.9961 13.7132 38.8594C15.7877 36.7226 18.6132 35.4782 21.59 35.3902H21.67C22.72 24.3902 34.37 15.7202 48.59 15.7202C59.69 15.7202 69.22 21.0002 73.37 28.5502M62.1 55.4202C63.9271 56.7734 66.0379 57.6935 68.2729 58.1111C70.5078 58.5286 72.8085 58.4326 75.0009 57.8303C77.1933 57.2281 79.2201 56.1353 80.9281 54.6346C82.6361 53.1339 83.9806 51.2646 84.86 49.1679C85.7394 47.0712 86.1307 44.8021 86.0043 42.532C85.8778 40.2619 85.237 38.0502 84.1302 36.0642C83.0234 34.0781 81.4796 32.3697 79.6155 31.0679C77.7514 29.7662 75.6157 28.9053 73.37 28.5502M73.37 28.5502C72.5502 28.4145 71.7209 28.3443 70.89 28.3402M23.43 72.4802L20.13 80.2802M30.69 55.3402L26.47 65.3002M36.11 72.3202L32.74 80.2802M43.31 55.3402L38.97 65.5802M48.6 72.6302L45.36 80.2802M55.92 55.3402L51.66 65.4102" stroke="#00008F" stroke-width="2" stroke-linecap="round" stroke-linejoin="round"/>
</svg>

<svg width="96" height="96" viewBox="0 0 96 96" fill="none" xmlns="http://www.w3.org/2000/svg"><path d="M21.59 58.28a11.45 11.45 0 010-22.89h.08c1.05-11 12.7-19.67 26.92-19.67 11.1 0 20.63 5.28 24.78 12.83M62.1 55.42a15 15 0 1011.27-26.87m0 0a15.66 15.66 0 00-2.48-.21M23.43 72.48l-3.3 7.8m10.56-24.94l-4.22 9.96m9.64 7.02l-3.37 7.96m10.57-24.94l-4.34 10.24m9.63 7.05l-3.24 7.65m10.56-24.94l-4.26 10.07" stroke="#00008F" stroke-width="2" stroke-linecap="round" stroke-linejoin="round"/></svg>
